images/golf_theme_light.svg

<svg width="50" height="50" viewBox="0 0 50 50" fill="none" xmlns="http://www.w3.org/2000/svg">
<path d="M0.132742 3.78637C0.0123294 2.48481 -0.0350098 1.10089 0.0277697 0.709945C0.0905492 0.319002 2.19315 0 4.69918 0H9.25738L10.5253 5.21193C11.2231 8.07916 11.5329 10.6643 11.2138 10.9568C10.8948 11.2503 8.70883 10.9597 6.35615 10.3113C4.00346 9.66283 1.68988 8.46252 1.21543 7.64277C0.739956 6.82302 0.253156 5.08794 0.132742 3.78637Z" fill="#0086FF"/>
<path d="M3.352 18.5125C2.71803 16.2 2.20035 13.8989 2.20035 13.3991C2.20035 12.8756 4.17842 13.0384 6.86765 13.7833C9.43543 14.4933 11.927 15.2979 12.4056 15.5696C12.8842 15.8412 13.4914 17.1012 13.7549 18.3687C14.1789 20.4114 13.7322 20.79 9.81931 21.6959C7.39149 22.2582 5.20245 22.7182 4.95442 22.7182C4.70639 22.7182 3.98494 20.826 3.352 18.5125Z" fill="#0086FF"/>
<path d="M5.09026 25.9367L19.3402 22.9985C27.1773 21.3817 35.5939 20.0186 38.0433 19.9693C41.6855 19.8946 43.0554 20.3925 45.5645 22.7003C48.1683 25.0952 48.5851 26.1345 48.3155 29.5631C48.0489 32.9632 47.6722 33.57 45.9401 33.3892C44.808 33.2709 42.6416 33.4043 41.1267 33.6855C39.6118 33.9676 37.2097 35.2663 35.7884 36.5726C34.3681 37.8798 32.8974 40.2416 32.5197 41.8233L31.8333 44.6972L22.934 44.0602C16.9504 43.6314 13.1929 42.8703 11.4629 41.7363C10.0478 40.8086 8.31054 38.4572 7.60144 36.5111C6.89337 34.5649 6.03916 31.39 5.70262 29.4552L5.09026 25.9367Z" fill="#0086FF"/>
<path d="M39.6622 38.5879C39.0395 38.9703 37.997 40.2141 37.3466 41.3519C36.5304 42.7766 36.4759 44.1775 37.1716 45.8596C37.7263 47.2019 39.3473 48.7884 40.7737 49.3866C42.726 50.2045 44.0084 50.2045 45.9607 49.3866C47.3871 48.7884 48.9968 47.2294 49.5371 45.9212C50.132 44.4824 50.1556 42.6601 49.5958 41.3055C49.0873 40.075 47.9028 38.7971 46.9642 38.4658C46.0256 38.1345 44.2533 37.8704 43.0255 37.878C41.7988 37.8865 40.2848 38.2055 39.6622 38.5879Z" fill="#0069B7"/>
</svg>

<svg width="50" height="50" fill="none" xmlns="http://www.w3.org/2000/svg"><path d="M.133 3.786C.013 2.485-.035 1.101.028.71.09.319 2.193 0 4.699 0h4.558l1.268 5.212c.698 2.867 1.008 5.452.689 5.745-.32.293-2.505.003-4.858-.646-2.353-.648-4.666-1.848-5.14-2.668C.74 6.823.252 5.088.132 3.786Zm3.219 14.726C2.718 16.2 2.2 13.9 2.2 13.4c0-.523 1.978-.36 4.668.384 2.567.71 5.059 1.515 5.538 1.787.478.271 1.085 1.531 1.349 2.799.424 2.042-.023 2.421-3.936 3.327-2.428.562-4.617 1.022-4.865 1.022-.248 0-.97-1.892-1.602-4.206Zm1.738 7.425 14.25-2.939c7.837-1.616 16.254-2.98 18.703-3.029 3.642-.074 5.012.423 7.522 2.731 2.603 2.395 3.02 3.434 2.75 6.863-.266 3.4-.643 4.007-2.375 3.826-1.132-.118-3.298.015-4.813.296-1.515.283-3.917 1.581-5.339 2.888-1.42 1.307-2.89 3.669-3.268 5.25l-.687 2.874-8.899-.637c-5.984-.429-9.741-1.19-11.471-2.324-1.415-.927-3.152-3.279-3.862-5.225-.708-1.946-1.562-5.121-1.898-7.056l-.613-3.518Z" fill="#0086FF"/><path d="M39.662 38.588c-.623.382-1.665 1.626-2.315 2.764-.817 1.425-.871 2.826-.175 4.508.554 1.342 2.175 2.928 3.602 3.527 1.952.818 3.234.818 5.187 0 1.426-.599 3.036-2.158 3.576-3.466.595-1.439.619-3.26.059-4.615-.509-1.231-1.693-2.509-2.632-2.84-.938-.331-2.71-.596-3.938-.588-1.227.008-2.741.328-3.364.71Z" fill="#0069B7"/></svg>
